icons/dark/txt.svg

<svg width="16" height="16" viewBox="0 0 16 16" fill="none" xmlns="http://www.w3.org/2000/svg">
<path fill-rule="evenodd" clip-rule="evenodd" d="M4 1L3 2V14L4 15H13L14 14V5L13.7071 4.29289L10.7071 1.29289L10 1H4ZM4 14V2H9V6H13V14H4ZM13 5L10 2V5H13Z" fill="#C5C5C5"/>
<path d="M11.875 7.25V8H5.125V7.25H11.875ZM5.125 11.75H8.5V11H5.125V11.75ZM5.125 9.875H11.875V9.125H5.125V9.875Z" fill="#C5C5C5"/>
</svg>

<svg xmlns="http://www.w3.org/2000/svg" width="16" height="16" fill="#c5c5c5" xmlns:v="https://vecta.io/nano"><path fill-rule="evenodd" d="M4 1L3 2v12l1 1h9l1-1V5l-.293-.707-3-3L10 1H4zm0 13V2h5v4h4v8H4zm9-9l-3-3v3h3z"/><path d="M11.875 7.25V8h-6.75v-.75h6.75zm-6.75 4.5H8.5V11H5.125v.75zm0-1.875h6.75v-.75h-6.75v.75z"/></svg>
